X: 24970
T: Maid Of Hollywell, The
R: reel
M: 4/4
K: Dmajor
A3 A ~B3 d|A2 FA BE ~E2|ADFA (B/c/d) Ad|(B/c/d) AG FDDE|
D2 FA d2 cB|A2 GF GEEF|~G3 A Bdeg|fedc d3 A||
d3 f edBd|egfe dBAB|d3 d egfe|dBAG FD D2|
d2 ~d2 edBd|egfe dBAB|defg ~a3 g|f2 eg fedB||

